packages/icons/src/components/Icon/assets/small-solid/box-essentials.svg

<svg width="16" height="16" viewBox="0 0 16 16" fill="none" xmlns="http://www.w3.org/2000/svg">
<path d="M7.18976 8.41533C7.29053 8.46645 7.35403 8.56987 7.35403 8.68287V14.9646C7.35403 15.1863 7.12196 15.3314 6.92269 15.2343L1.16867 12.4326C1.06548 12.3823 1 12.2776 1 12.1629V5.76369C1 5.53991 1.23616 5.39491 1.43573 5.49615L7.18976 8.41533ZM15.001 12.1692C15.001 12.2831 14.9365 12.3872 14.8345 12.4379L9.23602 15.2185C9.0366 15.3175 8.80257 15.1725 8.80257 14.9498V8.67766C8.80257 8.56553 8.8651 8.46277 8.96467 8.41123L14.5631 5.51353C14.7628 5.41018 15.001 5.55511 15.001 5.77996V12.1692ZM13.6223 3.83458C13.8396 3.94563 13.8405 4.25596 13.6237 4.36816L8.21187 7.16922C8.12616 7.21359 8.02434 7.214 7.93826 7.17034L2.41596 4.36924C2.19629 4.25781 2.19708 3.94376 2.41733 3.83345L7.93849 1.06814C8.0238 1.02541 8.12435 1.02581 8.20932 1.06922L13.6223 3.83458Z" fill="#727683"/>
</svg>

<svg xmlns="http://www.w3.org/2000/svg" width="16" height="16" fill="none" viewBox="0 0 16 16">
    <path fill="#727683" d="M7.19 8.415a.3.3 0 0 1 .164.268v6.282a.3.3 0 0 1-.431.27l-5.754-2.802a.3.3 0 0 1-.169-.27v-6.4a.3.3 0 0 1 .436-.267zM15 12.17a.3.3 0 0 1-.166.269l-5.599 2.78a.3.3 0 0 1-.433-.268V8.678a.3.3 0 0 1 .162-.267l5.598-2.897A.3.3 0 0 1 15 5.78zm-1.379-8.334a.3.3 0 0 1 .002.533L8.212 7.17a.3.3 0 0 1-.274.001l-5.522-2.8a.3.3 0 0 1 .001-.537l5.521-2.765a.3.3 0 0 1 .271.001z"/>
</svg>
